X:1
T:Magi, LM
T:Magi, LM
T:Herbert Stephen Irons, 1894
T:Public Domain Courtesy of the Cyber Hymnal™
C:Herbert Stephen Irons, 1894
Z:Public Domain
Z:Courtesy of the Cyber Hymnal™
%%score ( 1 2 ) ( 3 4 )
L:1/8
M:3/4
K:A
V:1 treble 
V:2 treble 
V:3 bass 
V:4 bass 
V:1
 E2 | [Ec]4 [DB]2 | [CA]4 [EA]2 | (B2 c2) [Ed]2 | [Ec]4 E2 | [Ec]4 [^EB]2 | [FA]4 [FB]2 | %7
 (G3 A) [^DF]2 | E4 E2 | e4 [Ff]2 | (e2 d2) [Ee]2 | (c3 e) (dB) | (A2 G2) E2 | [Ec]4 [DB]2 | %14
 ([CA]2 [DB]2) [Ec]2 | (e2 F2) [DG]2 | [CA]4 |] %17
V:2
 E2 | x6 | x6 | F4 x2 | x4 E2 | x6 | x6 | E4 x2 | E4 E2 | (E2 =G2) x2 | F4 x2 | E4 F2 | E4 E2 | %13
 x6 | x6 | D4 x2 | x4 |] %17
V:3
 E,2 | [A,,A,]4 [E,G,]2 | [F,A,]4 [C,C]2 | (B,2 A,2) [E,G,]2 | [A,,A,]4 [E,G,]2 | A,4 [G,B,]2 | %6
 [F,C]4 [^D,B,]2 | [E,B,]4 [B,,A,]2 | [E,G,]4 [G,B,]2 | [A,C]4 [^A,C]2 | B,4 [G,B,]2 | A,4 (A,D) | %12
 (C2 B,2) [E,G,]2 | A,4 [E,G,]2 | A,4 [C,^A,]2 | [B,,B,]4 [E,B,]2 | [A,,A,]4 |] %17
V:4
 E,2 | x6 | x6 | D,4 x2 | x6 | A,4 x2 | x6 | x6 | x6 | x6 | (B,3 A,) x2 | (A,A,,B,,C,) D,2 | %12
 E,4 x2 | (A,,2 C,2) x2 | (F,2 D,2) x2 | x6 | x4 |] %17

